picto/remote-bus-left.svg

<svg class="color-immutable" width="24" height="24" viewBox="0 0 24 24" fill="none" xmlns="http://www.w3.org/2000/svg"><path d="M0 22.5V1.5C0 0.675 0.675 0 1.5 0H22.5C23.325 0 24 0.675 24 1.5V22.5C24 23.325 23.325 24 22.5 24H1.5C0.675 24 0 23.325 0 22.5Z" fill="#2D327D"/><path d="M3.57098 16.054C3.57098 16.259 3.57098 18.508 3.57098 18.508C3.57098 18.882 3.87398 19.185 4.24798 19.185H10.241C10.679 19.185 10.89 18.941 10.89 18.541C10.96 16.873 12.303 15.412 14.13 15.412C15.818 15.412 17.37 16.811 17.37 18.541C17.37 19.008 17.626 19.185 18.012 19.185H21V14.308H9.93098C9.72598 14.308 9.56098 14.142 9.56098 13.938C9.56098 13.734 9.72698 13.568 9.93098 13.568H21V12.888H9.93098C9.72598 12.888 9.56098 12.722 9.56098 12.518C9.56098 12.314 9.72698 12.148 9.93098 12.148H21V10.626H17.831C17.62 10.626 17.45 10.455 17.45 10.245V6.029C17.45 5.818 17.621 5.648 17.831 5.648H21V5.598V4.751H6.98598C6.33298 4.751 5.65398 5.342 5.53698 5.888C5.53698 5.888 4.16598 12.041 3.60698 15.593C3.59498 15.667 3.57098 15.849 3.57098 16.054ZM9.38598 9.94L11.29 6.105C11.408 5.892 11.579 5.647 11.887 5.647H16.091C16.344 5.647 16.549 5.852 16.549 6.105V10.166C16.549 10.419 16.344 10.624 16.091 10.624H9.74598C9.49298 10.624 9.22098 10.349 9.38598 9.94ZM4.74798 14.06L6.40998 6.252C6.52298 5.842 6.73998 5.618 7.13698 5.618L9.88098 5.608C10.113 5.608 10.279 5.899 10.227 6.142C10.218 6.186 10.202 6.227 10.18 6.266L6.04198 14.537C5.89798 14.797 5.60098 14.932 5.31098 14.87L5.26698 14.861C4.90298 14.783 4.66998 14.425 4.74798 14.06Z" fill="white"/><path d="M2.36899 9.959L2.64299 7.985L2.64699 7.961C2.72899 7.568 2.85699 7.127 3.19499 6.837C3.47899 6.593 3.86599 6.484 4.44799 6.484H4.88999L4.74999 7.225H4.44799C3.93899 7.225 3.76399 7.324 3.67699 7.399C3.54599 7.512 3.45199 7.728 3.37399 8.1L3.10199 10.061C3.07599 10.246 2.91799 10.381 2.73599 10.381C2.71899 10.381 2.70199 10.38 2.68499 10.377C2.48199 10.349 2.33999 10.162 2.36899 9.959Z" fill="white"/><path d="M11.782 18.651C11.782 17.356 12.836 16.303 14.131 16.303C15.426 16.303 16.479 17.356 16.479 18.651C16.479 19.946 15.425 21 14.131 21C12.835 21 11.782 19.946 11.782 18.651ZM12.915 18.608C12.915 19.278 13.46 19.823 14.131 19.823C14.801 19.823 15.346 19.278 15.346 18.608C15.346 17.938 14.801 17.393 14.131 17.393C13.46 17.393 12.915 17.938 12.915 18.608Z" fill="white"/></svg>

<svg class="color-immutable" width="24" height="24" viewBox="0 0 24 24" fill="none" xmlns="http://www.w3.org/2000/svg"><g clip-path="url(#a)"><path d="M0 22.5v-21C0 .675.675 0 1.5 0h21c.825 0 1.5.675 1.5 1.5v21c0 .825-.675 1.5-1.5 1.5h-21C.675 24 0 23.325 0 22.5Z" fill="#2D327D"/><path d="M3.571 16.054v2.454c0 .374.303.677.677.677h5.993c.438 0 .649-.244.649-.644.07-1.668 1.413-3.129 3.24-3.129 1.688 0 3.24 1.399 3.24 3.129 0 .467.256.644.642.644H21v-4.877H9.931a.37.37 0 1 1 0-.74H21v-.68H9.931a.37.37 0 1 1 0-.74H21v-1.522h-3.169a.38.38 0 0 1-.381-.381V6.029a.38.38 0 0 1 .381-.381H21v-.897H6.986c-.653 0-1.332.591-1.449 1.137 0 0-1.371 6.153-1.93 9.705a3.078 3.078 0 0 0-.036.461ZM9.386 9.94l1.904-3.835c.118-.213.289-.458.597-.458h4.204c.253 0 .458.205.458.458v4.061a.458.458 0 0 1-.458.458H9.746c-.253 0-.525-.275-.36-.684Zm-4.638 4.12L6.41 6.252c.113-.41.33-.634.727-.634l2.744-.01c.232 0 .398.291.346.534a.423.423 0 0 1-.047.124l-4.138 8.271a.675.675 0 0 1-.731.333l-.044-.009a.675.675 0 0 1-.519-.801ZM2.369 9.959l.274-1.974.004-.024c.082-.393.21-.834.548-1.124.284-.244.671-.353 1.253-.353h.442l-.14.741h-.302c-.509 0-.684.099-.771.174-.131.113-.225.329-.303.701l-.272 1.961a.371.371 0 0 1-.417.316.37.37 0 0 1-.316-.418Z" fill="#fff"/><path d="M11.782 18.651a2.351 2.351 0 0 1 2.349-2.348 2.35 2.35 0 0 1 2.348 2.348A2.352 2.352 0 0 1 14.131 21a2.351 2.351 0 0 1-2.349-2.349Zm1.133-.043a1.217 1.217 0 0 0 2.431 0 1.216 1.216 0 0 0-2.431 0Z" fill="#fff"/></g><defs><clipPath id="a"><path fill="#fff" d="M0 0h24v24H0z"/></clipPath></defs></svg>
